X: 14784
T: Gan Ainm
R: polka
M: 2/4
K: Dmajor
|:"D"DF Ad|"G"~B2 Bd|"D"~A2 Ad|"G"~B2 Bd|
"D"AF EF|"A" E2 FG|AG FE|1 : "D"F2 D2:|2 : "D"D2 FD:|
|:"A" E2 A2|A3 G|"Em" FE FG|EA EF|
"G" G2 ~G2|G3 A|"D"FD DF|1 :D2 FD:|2 : D4||

